X:1
T:[ID 2-126]
T:[ID 2-126]
T:Bezeichnung standardisiert: Menuet [mit Trio] Menuetto Con Trio Nro 2. In dieser Quelle auch als: Men\"uet
T:Urheber unbekannt Erstbeleg: 1767 (Datum in der schriftlichen Quelle) Datum in der hier transkribierten schriftlichen Quelle: 1776 - 1791
C:Urheber unbekannt
C:Erstbeleg: 1767 (Datum in der schriftlichen Quelle)
C:Datum in der hier transkribierten schriftlichen Quelle: 1776 - 1791
L:1/8
M:3/4
K:D
V:1 treble 
V:1
 D2 F2 A2 | d4 (3efg | f2 d2 c2 | d4 (3efg | f2 D2 (3fga | g2 E2 fg | a2 c2 df | e6 :: A2 c2 ce | %9
 A2 d2 df | A2 e2 eg | f4 e2 | d2 f2 a2 | d'2 dc d2 | egfedc | d6 :| %16
[M:3/4]"^Trio" !fermata!D4 A,D | F4 DF | A4 FA | d2 D2 D2 | A,2 C2 D2 | A,2 C2 D2 | A2 ^C2 D2 | %23
 [A,E]6 :: a2 ag a2 | A,2 A,2 A,2 | A2 GFED | A,2 A,2 A,2 | D4 A,D | F4 DF | A4 FA | d2 D2 D2 | %32
 A,2 B,2 C2 | D6 :| %34

